X:1
T:Title- composer
T:#
%%score 1 2 3
L:1/8
Q:1/4=240
M:none
K:F
V:1 treble nm="Soprano" snm="S"
V:2 treble nm="Alto" snm="A"
V:3 treble-8 nm="Tenor" snm="T"
V:1
"^Miserere mei""^Fabrizio Dentice\n (1539-81)" A8 A8 | A8 A8 | B8 A8- | A8 (d8- | d4 ^c2 =B2) c8 | %5
w: Mi- se-|re- re|me- i|* De\-|* * * us,|
 ^c8 c8 |[M:4/2] ^c8 c8 | ^c8 c8 | ^c8 c8 | d8 B8 | (A6 G2) (F4 G4 | A8) !fermata!A16 |] %12
w: se- cun-|dum ma-|gnam mi-|se- ri-|cor- di-|am * tu\- *|* am.|
V:2
 ^F8 F8 | ^F8 F8 | G8 F4 (F4- | F2 G2 A8) G4 | A16 | A8 A8 |[M:4/2] A8 A8 | A8 A8 | A8 A8 | %9
w: Mi- se-|re- re|me- i De\-||us,|se- cun-|dum ma-|gnam mi-|se- ri-|
 A12 G4 | E4 (F8 E2 D2 | E8) !fermata!^F16 |] %12
w: cor- di-|am tu\- * *|* am.|
V:3
 d8 d8 | d8 d8 | d8 d8 | (f6 e2 d8) | e16 | e8 e8 |[M:4/2][K:treble-8] e8 e8 | e8 e8 | e8 e8 | %9
w: Mi- se-|re- re|me- i|De\- * *|us,|se- cun-|dum ma-|gnam mi-|se- ri-|
 d8 d8 | c8 (d8- | d4 ^c4) !fermata!d16 |] %12
w: cor- di-|am tu\-|* * am.|

